src/assets/outline/ArrowCircleRight.svg

<svg width="24" height="24" viewBox="0 0 24 24"  xmlns="http://www.w3.org/2000/svg">
<path d="M12 22.75C6.07 22.75 1.25 17.93 1.25 12C1.25 6.07 6.07 1.25 12 1.25C17.93 1.25 22.75 6.07 22.75 12C22.75 17.93 17.93 22.75 12 22.75ZM12 2.75C6.9 2.75 2.75 6.9 2.75 12C2.75 17.1 6.9 21.25 12 21.25C17.1 21.25 21.25 17.1 21.25 12C21.25 6.9 17.1 2.75 12 2.75Z" />
<path d="M10.7402 16.2799C10.5502 16.2799 10.3602 16.2099 10.2102 16.0599C9.92018 15.7699 9.92018 15.2899 10.2102 14.9999L13.2102 11.9999L10.2102 8.99991C9.92018 8.70991 9.92018 8.22991 10.2102 7.93991C10.5002 7.64991 10.9802 7.64991 11.2702 7.93991L14.8002 11.4699C15.0902 11.7599 15.0902 12.2399 14.8002 12.5299L11.2702 16.0599C11.1202 16.2099 10.9302 16.2799 10.7402 16.2799Z" />
</svg>

<?xml version="1.0" encoding="UTF-8"?>
<svg width="24" height="24" viewBox="0 0 24 24" xmlns="http://www.w3.org/2000/svg">
 <path d="m12 22.75c-5.93 0-10.75-4.82-10.75-10.75s4.82-10.75 10.75-10.75 10.75 4.82 10.75 10.75-4.82 10.75-10.75 10.75zm0-20c-5.1 0-9.25 4.15-9.25 9.25s4.15 9.25 9.25 9.25 9.25-4.15 9.25-9.25-4.15-9.25-9.25-9.25z"/>
 <path d="m10.74 16.28c-0.19 0-0.38-0.07-0.53-0.22-0.29002-0.29-0.29002-0.77 0-1.06l3-3-3-3c-0.29002-0.29-0.29002-0.77 0-1.06 0.29-0.29 0.77-0.29 1.06 0l3.53 3.53c0.29 0.29 0.29 0.77 0 1.06l-3.53 3.53c-0.15 0.15-0.34 0.22-0.53 0.22z"/>
</svg>
